!!!OTL: Gottselige Strickerin Es war einmal eine gottselige Strickerin,
!!!ARE: Europa, Mitteleuropa, Lothringen, Rechicourt ( Kr. Saarburg )
!!!SCT: D0041
!!!YEM: Copyright 1995, estate of Helmut Schaffrath.
**kern
*ICvox
*Ivox
*M3/8
*k[b-]
*F:
{8f
=1
8f
8f
8f
=2
8f
8f
8f
=3
8g
8g
8a
=4
4b-
8b-
=5
4f}
{8f
=6
8b-
8b-
8cc
=7
8dd
8dd
16dd
16cc
=8
8b-
8g
8a
=9
4.b-
=10
4r}
{8b-
=11
8cc
8b-
8cc
=12
8dd
8dd
8cc
=13
4.b-
=14
4.g}
=15
{4cc
8dd
=16
8.b-
16a
8f
=17
8g
8a
8a
=18
4.f
=19
4r}
{8f
=20
8b-
8b-
8cc
=21
8dd
8dd
8cc
=22
4.b-
=23
4.g}
=24
{4cc
8dd
=25
8.b-
16a
8f
=26
8g
8a
8f
=27
4f}
==
!!!AGN: religioeses Erzaehl - Lied
!! Verzierungen; Inzipit = Variante zum Lied
!!!ONB: ESAC (Essen Associative Code) Database: DVA
!!!AMT: simple triple
!!!AIN: vox
!!!EED: Helmut Schaffrath
!!!EEV: 1.0
*-
